Numix/16/status/indicator-keyboard-Hu-8.svg

<?xml version="1.0" encoding="UTF-8" standalone="no"?>
<svg
   xmlns:dc="http://purl.org/dc/elements/1.1/"
   xmlns:cc="http://creativecommons.org/ns#"
   xmlns:rdf="http://www.w3.org/1999/02/22-rdf-syntax-ns#"
   xmlns:svg="http://www.w3.org/2000/svg"
   xmlns="http://www.w3.org/2000/svg"
   xmlns:sodipodi="http://sodipodi.sourceforge.net/DTD/sodipodi-0.dtd"
   xmlns:inkscape="http://www.inkscape.org/namespaces/inkscape"
   viewBox="0 0 16 16"
   id="svg2"
   version="1.1"
   inkscape:version="0.91 r13725"
   sodipodi:docname="indicator-keyboard-Hu-8.svg">
  <metadata
     id="metadata14">
    <rdf:RDF>
      <cc:Work
         rdf:about="">
        <dc:format>image/svg+xml</dc:format>
        <dc:type
           rdf:resource="http://purl.org/dc/dcmitype/StillImage" />
      </cc:Work>
    </rdf:RDF>
  </metadata>
  <defs
     id="defs12" />
  <sodipodi:namedview
     pagecolor="#ffffff"
     bordercolor="#666666"
     borderopacity="1"
     objecttolerance="10"
     gridtolerance="10"
     guidetolerance="10"
     inkscape:pageopacity="0"
     inkscape:pageshadow="2"
     inkscape:window-width="459"
     inkscape:window-height="369"
     id="namedview10"
     showgrid="false"
     inkscape:zoom="14.75"
     inkscape:cx="8"
     inkscape:cy="8"
     inkscape:window-x="65"
     inkscape:window-y="24"
     inkscape:window-maximized="0"
     inkscape:current-layer="svg2" />
  <path
     style="fill:#ececec;fill-opacity:1"
     d="M 1.5996094 0 C 0.71320937 2.9605947e-16 0 0.71320937 0 1.5996094 L 0 14.400391 C 2.9605947e-16 15.286791 0.71320937 16 1.5996094 16 L 14.400391 16 C 15.286791 16 16 15.286791 16 14.400391 L 16 1.5996094 C 16 0.71320937 15.286791 0 14.400391 0 L 1.5996094 0 z M 1.2792969 4.859375 L 1.890625 4.859375 L 1.890625 7.5683594 L 5.2753906 7.5683594 L 5.2753906 4.859375 L 5.8867188 4.859375 L 5.8867188 11.095703 L 5.2753906 11.095703 L 5.2753906 8.0996094 L 1.890625 8.0996094 L 1.890625 11.095703 L 1.2792969 11.095703 L 1.2792969 4.859375 z M 7.4121094 6.4433594 L 7.9960938 6.4433594 L 7.9960938 8.8632812 C 7.9960938 9.1932812 8.0203594 9.4731719 8.0683594 9.7011719 C 8.1163594 9.9291721 8.1947344 10.115766 8.3027344 10.259766 C 8.4107344 10.397766 8.5487969 10.498453 8.7167969 10.564453 C 8.8907969 10.624453 9.1016562 10.654297 9.3476562 10.654297 C 9.6236563 10.654297 9.8624062 10.639375 10.066406 10.609375 C 10.270406 10.579375 10.399125 10.553297 10.453125 10.529297 L 10.453125 6.4433594 L 11.039062 6.4433594 L 11.039062 10.933594 C 10.865063 10.981594 10.631891 11.035703 10.337891 11.095703 C 10.043891 11.155703 9.6838125 11.185547 9.2578125 11.185547 C 8.9098125 11.185547 8.6187656 11.135203 8.3847656 11.033203 C 8.1507656 10.931203 7.9604063 10.787562 7.8164062 10.601562 C 7.6724062 10.415563 7.5679531 10.189781 7.5019531 9.9257812 C 7.4419531 9.6617813 7.4121094 9.3707344 7.4121094 9.0527344 L 7.4121094 6.4433594 z M 13.457031 8.7539062 C 13.659831 8.7539062 13.836175 8.7852563 13.984375 8.8476562 C 14.132575 8.9061562 14.252103 8.9845313 14.345703 9.0820312 C 14.443203 9.1795313 14.513741 9.2912156 14.556641 9.4160156 C 14.603441 9.5408156 14.626953 9.6681812 14.626953 9.8007812 C 14.626953 9.9294812 14.607359 10.049003 14.568359 10.158203 C 14.529359 10.263503 14.478416 10.361472 14.416016 10.451172 C 14.353616 10.536972 14.283078 10.613387 14.205078 10.679688 C 14.127078 10.745988 14.052616 10.800856 13.978516 10.847656 C 14.251516 10.964656 14.441581 11.111609 14.550781 11.287109 C 14.663881 11.462609 14.720703 11.64875 14.720703 11.84375 C 14.720703 12.01145 14.689353 12.164288 14.626953 12.304688 C 14.568453 12.445087 14.4842 12.566569 14.375 12.667969 C 14.2658 12.765469 14.134516 12.841884 13.978516 12.896484 C 13.822516 12.954984 13.648131 12.984375 13.457031 12.984375 C 13.265931 12.984375 13.091547 12.956944 12.935547 12.902344 C 12.783447 12.847744 12.652163 12.771328 12.539062 12.673828 C 12.429863 12.572428 12.34365 12.454866 12.28125 12.322266 C 12.22275 12.185766 12.193359 12.038806 12.193359 11.878906 C 12.193359 11.742406 12.212953 11.618966 12.251953 11.509766 C 12.290953 11.396666 12.341897 11.296737 12.404297 11.210938 C 12.470597 11.121237 12.545053 11.042863 12.626953 10.976562 C 12.712753 10.906362 12.800931 10.845622 12.894531 10.794922 C 12.656631 10.677922 12.495956 10.540759 12.410156 10.380859 C 12.324356 10.220959 12.28125 10.046575 12.28125 9.859375 C 12.28125 9.691675 12.310641 9.5407968 12.369141 9.4042969 C 12.427641 9.2677969 12.507975 9.1521938 12.609375 9.0585938 C 12.714675 8.9610937 12.838122 8.8866375 12.982422 8.8359375 C 13.126722 8.7813375 13.285431 8.7539062 13.457031 8.7539062 z M 13.457031 9.0820312 C 13.328331 9.0820312 13.214688 9.101625 13.117188 9.140625 C 13.019688 9.179625 12.937394 9.2344875 12.871094 9.3046875 C 12.808694 9.3709875 12.761663 9.4493625 12.726562 9.5390625 C 12.695362 9.6287624 12.679687 9.7208594 12.679688 9.8183594 C 12.679688 9.9275594 12.691444 10.027487 12.714844 10.117188 C 12.742144 10.206888 12.789175 10.289181 12.859375 10.363281 C 12.929575 10.433481 13.027544 10.5001 13.152344 10.5625 C 13.277144 10.621 13.441731 10.677822 13.644531 10.732422 C 13.823931 10.631022 13.965012 10.505622 14.070312 10.357422 C 14.175612 10.209222 14.228516 10.023081 14.228516 9.8007812 C 14.228516 9.7110813 14.212841 9.6248624 14.181641 9.5390625 C 14.154341 9.4532625 14.109275 9.3768469 14.046875 9.3105469 C 13.988375 9.2403469 13.911953 9.1854844 13.814453 9.1464844 C 13.716953 9.1035844 13.597431 9.0820312 13.457031 9.0820312 z M 13.222656 10.929688 C 13.023756 11.023287 12.870919 11.150647 12.761719 11.310547 C 12.652519 11.466547 12.597656 11.656606 12.597656 11.878906 C 12.597656 11.988106 12.615291 12.088041 12.650391 12.181641 C 12.685491 12.275241 12.738394 12.357534 12.808594 12.427734 C 12.882694 12.497934 12.970872 12.554756 13.076172 12.597656 C 13.185372 12.636656 13.312731 12.65625 13.457031 12.65625 C 13.601331 12.65625 13.726731 12.636656 13.832031 12.597656 C 13.941231 12.554756 14.029409 12.497934 14.099609 12.427734 C 14.173709 12.357534 14.228572 12.275241 14.263672 12.181641 C 14.298772 12.088041 14.316406 11.988106 14.316406 11.878906 C 14.316406 11.711206 14.283097 11.57405 14.216797 11.46875 C 14.154397 11.36345 14.072097 11.277238 13.966797 11.210938 C 13.865397 11.144638 13.747834 11.091734 13.615234 11.052734 C 13.486534 11.013734 13.355256 10.972587 13.222656 10.929688 z "
     id="path4" />
</svg>

<svg xmlns="http://www.w3.org/2000/svg" viewBox="0 0 16 16">
 <path d="m 1.6 0 c -0.886 0 -1.6 0.713 -1.6 1.6 l 0 12.801 c 0 0.886 0.713 1.6 1.6 1.6 l 12.801 0 c 0.886 0 1.6 -0.713 1.6 -1.6 l 0 -12.801 c 0 -0.886 -0.713 -1.6 -1.6 -1.6 l -12.801 0 z m -0.32 4.859 l 0.611 0 l 0 2.709 l 3.385 0 l 0 -2.709 l 0.611 0 l 0 6.236 l -0.611 0 l 0 -2.996 l -3.385 0 l 0 2.996 l -0.611 0 l 0 -6.236 z m 6.133 1.584 l 0.584 0 l 0 2.42 c 0 0.33 0.024 0.61 0.072 0.838 c 0.048 0.228 0.126 0.415 0.234 0.559 c 0.108 0.138 0.246 0.239 0.414 0.305 c 0.174 0.06 0.385 0.09 0.631 0.09 c 0.276 0 0.515 -0.015 0.719 -0.045 c 0.204 -0.03 0.333 -0.056 0.387 -0.08 l 0 -4.086 l 0.586 0 l 0 4.49 c -0.174 0.048 -0.407 0.102 -0.701 0.162 c -0.294 0.06 -0.654 0.09 -1.08 0.09 c -0.348 0 -0.639 -0.05 -0.873 -0.152 c -0.234 -0.102 -0.424 -0.246 -0.568 -0.432 c -0.144 -0.186 -0.248 -0.412 -0.314 -0.676 c -0.06 -0.264 -0.09 -0.555 -0.09 -0.873 l 0 -2.609 z m 6.04 2.311 c 0.203 0 0.379 0.031 0.527 0.094 c 0.148 0.059 0.268 0.137 0.361 0.234 c 0.098 0.098 0.168 0.209 0.211 0.334 c 0.047 0.125 0.07 0.252 0.07 0.385 c 0 0.129 -0.02 0.248 -0.059 0.357 c -0.039 0.105 -0.09 0.203 -0.152 0.293 c -0.062 0.086 -0.133 0.162 -0.211 0.229 c -0.078 0.066 -0.152 0.121 -0.227 0.168 c 0.273 0.117 0.463 0.264 0.572 0.439 c 0.113 0.176 0.17 0.362 0.17 0.557 c 0 0.168 -0.031 0.321 -0.094 0.461 c -0.059 0.14 -0.143 0.262 -0.252 0.363 c -0.109 0.098 -0.24 0.174 -0.396 0.229 c -0.156 0.059 -0.33 0.088 -0.521 0.088 c -0.191 0 -0.365 -0.027 -0.521 -0.082 c -0.152 -0.055 -0.283 -0.131 -0.396 -0.229 c -0.109 -0.101 -0.195 -0.219 -0.258 -0.352 c -0.059 -0.137 -0.088 -0.283 -0.088 -0.443 c 0 -0.136 0.02 -0.26 0.059 -0.369 c 0.039 -0.113 0.09 -0.213 0.152 -0.299 c 0.066 -0.09 0.141 -0.168 0.223 -0.234 c 0.086 -0.07 0.174 -0.131 0.268 -0.182 c -0.238 -0.117 -0.399 -0.254 -0.484 -0.414 c -0.086 -0.16 -0.129 -0.334 -0.129 -0.521 c 0 -0.168 0.029 -0.319 0.088 -0.455 c 0.058 -0.136 0.139 -0.252 0.24 -0.346 c 0.105 -0.098 0.229 -0.172 0.373 -0.223 c 0.144 -0.055 0.303 -0.082 0.475 -0.082 z m 0 0.328 c -0.129 0 -0.242 0.02 -0.34 0.059 c -0.098 0.039 -0.18 0.094 -0.246 0.164 c -0.062 0.066 -0.109 0.145 -0.145 0.234 c -0.031 0.09 -0.047 0.182 -0.047 0.279 c 0 0.109 0.012 0.209 0.035 0.299 c 0.027 0.09 0.074 0.172 0.145 0.246 c 0.07 0.07 0.168 0.137 0.293 0.199 c 0.125 0.059 0.289 0.115 0.492 0.17 c 0.179 -0.101 0.32 -0.227 0.426 -0.375 c 0.105 -0.148 0.158 -0.334 0.158 -0.557 c 0 -0.09 -0.016 -0.176 -0.047 -0.262 c -0.027 -0.086 -0.072 -0.162 -0.135 -0.229 c -0.059 -0.07 -0.135 -0.125 -0.232 -0.164 c -0.098 -0.043 -0.217 -0.064 -0.357 -0.064 z m -0.234 1.848 c -0.199 0.094 -0.352 0.221 -0.461 0.381 c -0.109 0.156 -0.164 0.346 -0.164 0.568 c 0 0.109 0.018 0.209 0.053 0.303 c 0.035 0.094 0.088 0.176 0.158 0.246 c 0.074 0.07 0.162 0.127 0.268 0.17 c 0.109 0.039 0.237 0.059 0.381 0.059 c 0.144 0 0.27 -0.02 0.375 -0.059 c 0.109 -0.043 0.197 -0.1 0.268 -0.17 c 0.074 -0.07 0.129 -0.152 0.164 -0.246 c 0.035 -0.094 0.053 -0.194 0.053 -0.303 c 0 -0.168 -0.033 -0.305 -0.1 -0.41 c -0.062 -0.105 -0.145 -0.192 -0.25 -0.258 c -0.101 -0.066 -0.219 -0.119 -0.352 -0.158 c -0.129 -0.039 -0.26 -0.08 -0.393 -0.123 z" style="fill:#ececec;fill-opacity:1"/>
</svg>
